X: 41226
T: Trotting To Larne
R: slip jig
M: 9/8
K: Amajor
E2 c E2 c cBA|E2 c E2 c cBA|F2 A D2 F AGF|E2 C EAB cAF|
E2 c E2 c cBA|F2 d F2 d dcB|G2 B E2 e fed|1 cec BAG AGF:|2 cec BAG Aag||
|:~f3 edc ~e3|efe edc eag|~f3 fed e2 c|dcB BcA GFE|
EAc A2 E A2 =G|FAd A2 F ABA|GBe d2 B fed|1 cec BAG Aag:|2 cec BAG A3||

